X:1
T:Fantaisie-Impromtu
T:Fantaisie-Impromtu op. 66
T:Frédéric Chopin
T:Composé pour Madame la Baronne d'Este Paris Vendredi 1835
T:According to the autograph
C:Frédéric Chopin
%%score { ( 1 4 ) | ( 2 3 ) }
L:1/8
M:2/2
K:E
V:1 treble nm="Klavier" snm="Klav."
V:4 treble 
V:2 bass 
V:3 bass 
V:1
"^Allegro agitato" z8 | z8 | z8!p! | z8 | z/!<(! (G/A/G/ ^^F/G/c/e/ d/c/d/c/ ^B/c/e/g/)!<)! | %5
 z/ (G/A/G/!<(! ^^F/G/c/e/ d/c/d/c/ ^B/c/e/g/)!<)! | %6
 z/!<(! (!>!A/c/d/ f/a/c'/d'/!8va(! b'/a'/g'/f'/!<)! e'/d'/f'/c'/!8va)! | %7
 ^b/d'/a/g/ f/a/e/d/ f/c/^B/d/ A/G/=B/!>!A/-) | A/!<(!(G/A/G/ ^^F/G/c/e/ d/c/d/c/ ^B/c/e/g/)!<)! | %9
 z/!<(! (G/^A/G/ ^^F/G/c/e/ d/c/d/c/ ^B/c/e/!<)!g/) | %10
!<(! (d/e/d/^^c/ d/b/^a/g/ ^^f/e'/d'/c'/ b/a/g/f/!<)! | %11
 !>!^a/g/b/^^c/ !>!e/d/g/^A/ !>!^c/B/d/^^F/ !>!A/G/F/G/) |!>(! G2!>)! F2 E2 F2 | %13
!<(! C2 D2 E2 G2!<)! |!>(! G2 F2 E2!>)! F2 |!<(! E2 F2 A2!<)! G2 | %16
 G2 F2 E2"^sempre più animato" F2 |!<(! C2 D2 E2 G2!<)! | G2 F2!>(! d2!>)! c2 | %19
!>(! c2!>)! B2 ^B2 B2 |!>(! c2!>)! B2!>(! B2!>)! A2 |!>(! A2!>)! =A2 A2 A2 | %22
!>(! c2!>)! B2!>(! B2!>)! A2 |[Q:1/4=120]"_poco ritenuto" A2 ^A2 =A2 G2 | %24
"_a tempo" z/ (G/A/G/!<(! ^^F/G/c/e/ d/c/d/c/ ^B/c/e/!<)!g/) | %25
 z/!<(! (G/A/G/ ^^F/G/c/e/ d/c/d/c/ ^B/c/e/!<)!g/) | %26
 z/!<(! (A/c/d/ f/a/c'/d'/!8va(! b'/a'/g'/f'/!<)! e'/d'/f'/c'/!8va)! | %27
 ^b/d'/a/g/ f/a/e/d/ f/c/!>(!^B/d/ A/G/=B/!>)!!>!A/-) | %28
 A/(G/A/G/ ^^F/G/c/e/!>(! d/c/d/!>)!c/ ^B/c/e/g/) | %29
!>(! (e/d/e/!>)!d/ ^^c/d/f/a/!>(! f/^e/f/!>)!e/ ^^d/e/g/c'/) | %30
 z/!<(! (c/d/c/ ^B/c/f/a/ f/^e/f/e/ ^^d/e/g/c'/) | %31
 (g/f/g/f/ ^e/f/a/c'/ a/g/a/g/ ^^f/g/!<)!^b/d'/) | %32
!f!!>(!!>(! (e/f/e/!>)!d/ e/!<(!e'/^d'/=d'/ c'/=c'/b/_b/ a/^g/=g/f/)!>)! | %33
 (e/f/e/d/ e/e'/^d'/=d'/ c'/=c'/b/_b/!<)! a/^g/=g/f/) | %34
 e!ff! (g'/"_con forza"=g'/ ^f'/=f'/e'/d'/ =d'/c'/=c'/b/ _b/a/g/=g/ | %35
 f/=f/e/d/ =d/c/=c/B/ _B/A/G/=G/ F/E/D/C/) | %36
 z2!ff!!8va(! (!>!a'/g'/e''/e'/ !>!f'/e'/c''/c'/ !>!d'/c'/g'/g/!8va)! | %37
 a/g/e'/e/ f/e/c'/c/ d/c/g/G/ A/G/e/E/ | F/E/c/C/ D/C/G/G,/ D/C/G/G,/ D/C/A/A,/ | %39
 D/C/A/A,/ D/C/^^F/^^F,/ D/C/G/G,/ D/^B,/G/!courtesy!^F,/) ||[K:Db]"^più lento"!ff! z8 | %41
"_dim." z8"^sostenuto" |"_con anima" A4!<(! TBAde!<)! | (f4 !>!a4 | g2 f2 e2 !>!f>d | A4) (!>!B4- | %46
 B4 T_cBef | g2 f2 e2) !>!f2 | d4!p!{cded} f3 e | e8 | (!>!A4 TBAde | f4 !>!a4 | g2 f2 e2 f>d | %53
 A4) (!>!B4- |!<(! B4 T_c>Be!<)!f | g2 f2 e2 f2 | d3) (=G/4A/4B/4A/4 f3"_poco ritenuto" e)!pp! | %57
 (e4- e2"^a tempo" d) z/ (a/ | A4) TB>(=AB>)(c"_sotto voce" | %59
 _A2) z2!f! (!>!c'2- (7:4:7c'/b/a/_f/d/B/a/ | !>!E4){/c} (B>=ABz/e/ | A2) z2 (B2 (3dcB) | %62
 (A4 B>Ade | f4) (!>!a4 | g2 f2 e2{fede} f>d | A4) !>!B4- | B4!<(! (T_c>Bef)!<)! | %67
 (g2 f2 e2 !>!f2) | d4{=GABA} f3 e | e4- e2 d z/ (a/ | A4) TB>=AB>c | %71
 _A2 z2 (!>!c'2- (7:4:7c'/b/a/_f/d/B/a/) | !>!E4{/c} B>=AB>(e | A2) z2 B2 (3(dcB) | (A4 TB>Ade | %75
 f4) (!>!a4 | g2 f2 e2{fede} f>d | A4) (!>!B4- |!<(! B4 T_c>Be>f!<)! | g2 f2 e2 f2 | %80
"_smorz." d4){=GABA} (f3 e) | e8 || %82
[K:E] z/[Q:1/4=120]"^(Allegro agitato)"!<(! (G/A/G/ ^^F/G/c/e/ d/c/d/c/ ^B/c/e/g/)!<)! | %83
 z/ (G/A/G/!<(! ^^F/G/c/e/ d/c/d/c/ ^B/c/e/g/)!<)! | %84
 z/!<(! (!>!A/c/d/ f/a/c'/d'/!8va(! b'/a'/g'/f'/!<)! e'/d'/f'/c'/!8va)! | %85
 ^b/d'/a/g/ f/a/e/d/ f/c/^B/d/ A/G/=B/!>!A/-) | A/!<(!(G/A/G/ ^^F/G/c/e/ d/c/d/c/ ^B/c/e/g/)!<)! | %87
 z/!<(! (G/^A/G/ ^^F/G/c/e/ d/c/d/c/ ^B/c/e/!<)!g/) | %88
!<(! (d/e/d/^^c/ d/b/^a/g/ ^^f/e'/d'/c'/ b/a/g/f/!<)! | %89
 !>!^a/g/b/^^c/ !>!e/d/g/^A/ !>!^c/B/d/^^F/ !>!A/G/F/G/) |!>(! G2!>)! F2 E2 F2 | %91
!<(! C2 D2 E2 G2!<)! |!>(! G2 F2 E2!>)! F2 |!<(! E2 F2 A2!<)! G2 | %94
 G2 F2 E2"^sempre più animato" F2 |!<(! C2 D2 E2 G2!<)! | G2 F2!>(! d2!>)! c2 | %97
!>(! c2!>)! B2 ^B2 B2 |!>(! c2!>)! B2!>(! B2!>)! A2 |!>(! A2!>)! =A2 A2 A2 | %100
!>(! c2!>)! B2!>(! B2!>)! A2 |[Q:1/4=120]"_poco ritenuto" A2 ^A2 =A2 G2 | %102
"^a tempo" z/ (G/A/G/!<(! ^^F/G/c/e/ d/c/d/c/ ^B/c/e/!<)!g/) | %103
 z/!<(! (G/A/G/ ^^F/G/c/e/ d/c/d/c/ ^B/c/e/!<)!g/) | %104
 z/!<(! (A/c/d/ f/a/c'/d'/!8va(! b'/a'/g'/f'/!<)! e'/d'/f'/c'/!8va)! | %105
 ^b/d'/a/g/ f/a/e/d/ f/c/!>(!^B/d/ A/G/=B/!>)!!>!A/-) | %106
 A/(G/A/G/ ^^F/G/c/e/!>(! d/c/d/!>)!c/ ^B/c/e/g/) | %107
!>(! (e/d/e/!>)!d/ ^^c/d/f/a/!>(! f/^e/f/!>)!e/ ^^d/e/g/^c'/) | %108
 z/!<(! (c/d/c/ ^B/c/f/a/ f/^e/f/e/ ^^d/e/g/c'/) | %109
 (g/f/g/f/ ^e/f/a/c'/ a/g/a/g/ ^^f/g/!<)!^b/d'/) | %110
!f!!>(!!>(! (e/f/e/!>)!d/ e/!<(!e'/^d'/=d'/ c'/=c'/b/_b/ a/^g/=g/f/)!>)! | %111
 (e/f/e/d/ e/e'/^d'/=d'/ c'/=c'/b/_b/!<)! a/^g/=g/f/) | %112
 e!ff! (g'/"_con forza"=g'/ ^f'/=f'/e'/d'/ =d'/c'/=c'/b/ _b/a/g/=g/ | %113
 f/=f/e/d/ =d/c/=c/B/ _B/A/G/=G/ F/E/D/C/) | %114
 z2!ff!!8va(! (!>!a'/g'/e''/e'/ !>!f'/e'/c''/c'/ !>!d'/c'/g'/g/!8va)! | %115
 a/g/e'/e/ f/e/c'/c/ d/c/g/G/ A/G/e/E/ | F/E/c/C/ D/C/G/G,/ D/C/G/G,/ D/C/A/A,/ | %117
 D/C/A/A,/ D/C/^^F/^^F,/ D/C/G/G,/ D/^B,/G/!courtesy!^F,/) | %118
 [E,C] z (A/G/!>!e/E/ A/G/!>!e/E/ A/G/d/D/ | A/G/d/D/ A/G/c/C/ E/D/G/G,/ E/D/G/G,/ | %120
 D/C/G/G,/ A/G/!>!e/E/ A/G/!>!e/E/ A/G/d/D/ | A/G/d/D/ A/G/c/C/ E/D/G/G,/ E/D/G/G,/ | %122
 D/C/G/G,/ A/G/e/E/ A/"_poco                   a"G/c/C/ A/G/e/E/ | %123
"_poco dim." D/C/G/G,/ A/G/e/E/ F/E/c/C/ A/G/e/E/ | F/E/c/C/ A/G/c/E/ F/E/c/C/ A/G/c/E/ | %125
 F/E/c/C/ A/G/c/E/ F/E/c/C/ A/G/c/E/ | %126
[Q:1/4=120]"_ed. accel." D/C/G/G,/ D/C/G/G,/ D/C/G/G,/ D/C/G/G,/ | %127
 D/C/G/G,/ D/C/G/G,/ D/C/G/G,/ D/C/G/G,/ | D/C/G/G,/ D/C/G/G,/ D/C/G/G,/ D/C/G/G,/ | %129
 D/C/G/G,/ D/C/G/G,/ D/C/G/G,/ D/C/G/G,/ | D/C/G/G,/ D/C/G/G,/ D/C/G/G,/ D/C/G/G,/ | %131
 D/C/G/G,/ D/C/G/G,/ D/C/G/G,/ D/C/G/G,/ | D/C/G/G,/ D/C/G/G,/ D/C/G/G,/ D/C/G/G,/ | %133
 D/C/G/G,/ D/C/G/G,/ D/C/G/G,/ D/C/G/G,/ | %134
[Q:1/4=120]"_rall.""^Version: 2015-09-24\nedited by Josef Friedrich, 2015\n\nhttps://github.com/Josef-Friedrich/scores\nhttps://musescore.com/user/1601631/scores/1172271\nhttp://imslp.org/wiki/File:PMLP02259-Fantaisie_Impromptu.pdf" D/C/G/G,/ D/C/G/G,/ D/C/G/G,/ D/C/G/G,/ | %135
 ^E/D/G/F,/ E/D/G/F,/ E/D/G/F,/ E/D/G/F,/ | !arpeggio!D8) | !fermata!C8 |] %138
V:2
!f!!>(! [G,,G,]8-!>)! | ([G,,G,]8 | (3C,)G,C"^6"(3ECG, (3(C,G,C(3ECG,) | %3
 (3(C,G,C(3ECG,) (3(C,G,C(3ECG,) | (3!>!C,G,C(3!>!ECG, (3!>!E,G,C(3!>!GCG, | %5
 (3!>!C,G,C(3!>!ECG, (3!>!E,G,C(3!>!GCG, | (3!>!D,A,C(3!>!FCA, (3!>!F,A,C(3!>!DCA, | %7
 (3(G,,D,F,(3^B,F,D, (3G,,D,F,(3B,F,D,) | (3C,G,C(3ECG, (3E,G,C(3GCG, | %9
 (3C,G,^A,(3EA,G, (3E,A,C(3GCA, | (3D,G,B,(3DB,G, (3D,^A,C(3^^FCA, | %11
 (6:4:6G,,D,G,B,G,D, (6:4:6G,,D,G,B,G,D, | (3A,,C,F,(3A,C,F, (3A,,C,F,(3CC,F, | %13
 (3B,,F,A,(3B,F,A, (3E,,B,,E,(3B,B,,E, | (3A,,C,F,(3A,C,F, (3A,,C,F,(3A,C,F, | %15
 (3B,,F,A,(3DF,A, (3E,,E,G,(3EE,G, | (3A,,C,F,(3A,C,F, (3A,,C,F,(3CC,F, | %17
 (3B,,F,A,(3B,F,A, (3E,,B,,E,(3B,B,,"^cresc."E, | (3A,,C,F,(3A,C,F, (3A,,D,F,(3CD,F, | %19
 (3G,,D,F,(3^B,D,F, (3G,,D,F,(3B,D,F, |!f! (3A,,D,F,(3B,D,F, (3^A,,D,F,(3^A,D,F, | %21
 (3^B,,D,F,(3=A,D,F, (3B,,D,F,(3A,D,F, | (3A,,D,F,(3=B,D,F, (3^A,,D,F,(3^A,D,F, | %23
 (3^B,,D,F,(3=A,D,F, (3B,,F,G,(3DF,G, | (3C,G,C(3ECG, (3E,G,C(3GCG, | (3C,G,C(3ECG, (3E,G,C(3GCG, | %26
 (3D,A,C(3FCA, (3F,A,C(3DCA, | (3G,,D,F,(3^B,F,D, (3G,,D,F,(3B,F,D, | %28
 (3C,G,C(3ECG, (3E,"^poco                               a                                     poco                        cresc."G,C(3GCG, | %29
 (3F,CD(3AD^C (3G,C^E(3BEC | (3A,CF(3AFC (3G,C^E(3BE"^cresc."C | (3A,CF(3AFC (3^B,,G,^D(3^FDG, | %32
 (3!>!C,G,C(3ECG, (3!>!^D,G,^B,(3FB,^G, | (3!>!E,G,C(3GCG, (3!>!F,C^D(3AD^C | %34
 [G,CEG] z !>![^^F,CE=A]6- | [F,CEA]2 z2 z2 (([^^F,,C,-E,-A,]2 | %36
 .[G,,C,E,G,]2))[K:treble] (!>![Gg]2 !>![Ee]2 !>![Cc]2) | [G,G]2[K:bass] [E,E]2 [C,C]2 [G,,G,]2 | %38
 [E,,E,]2 [C,,C,]2 ([G,,,G,,]2 [A,,,A,,]2 | [G,,,G,,]2 [^^F,,,^^F,,]2 [G,,,G,,]2 [G,,,G,,]2) || %40
[K:Db] (6:4:6(D,,A,,D, F,A,D (6:4:6FDA, (F, D,A,,)) | %41
 (6:4:6(D,,A,,D, F,A,D (6:4:6FDA, (F, D,A,,)) | (6:4:6(D,,A,CECA, (6:4:6D,A,CGCA, | %43
 (6:4:6D,A,DFDA,) (6:4:6(D,A,F!>!AFA,) | (6:4:6GEA, FDA, (6:4:6ECA, DB,A, | %45
 (6:4:6A,,E,A,CA,E, (6:4:6G,,G,B,DB,G, | (6:4:6B,,F,B,=DB,!<(!F, (6:4:6B,,B,DADB,!<)! | %47
 (6:4:6E,GB, F,F=A, (6:4:6G, EB, A,GC | (6:4:6D,A,DFDA, (6:4:6E,=G,DFG,E | %49
 (6:4:6A,,E,A,CA,E, (6:4:6A,,E,_G,B,G,E, | (6:4:6A,,E,A,CA,E, (6:4:6A,,A,CGCA, | %51
 (6:4:6D,A,DFDA, (6:4:6D,A,F!>!AFA, | (6:4:6GEA, FDA, (6:4:6ECA, DB,A, | %53
 (6:4:6A,,E,A,CA,E, (6:4:6G,,G,B,DB,G, | (6:4:6B,,F,B,=DB,F, (6:4:6B,,B,DADB, | %55
 (6:4:6E,GB, F,F=A, (6:4:6G, EB, A,GC | (6:4:6D,A,DFDA, (6:4:6D,A,C_GCA, | %57
 (6:4:6D,A,CGCA, (6:4:6(D,A,DFDA,) | (6:4:6A,,E,A,CA,E, (6:4:6D, _FA,E,=G,D | %59
 (6:4:6A,,E,A,CA,E, (6:4:6D,_F,A,DA,F, | (6:4:6E,,E,A,CE,A, (6:4:6E,,E,!courtesy!=G,DE,G, | %61
 (6:4:6A,,E,A,CE,A, (6:4:6G,,G,B,DB,G, | (6:4:6A,,E,A,CA,E, (6:4:6A,,A,CGCA, | %63
 (6:4:6D,A,DFDA, (6:4:6D,A,F!>!AFA, | (6:4:6GEA, FDA, (6:4:6ECA, DB,A, | %65
 (6:4:6A,,E,A,CA,E, (6:4:6G,,G,B,DB,G, | (6:4:6B,,F,B,=DB,F, (6:4:6B,,B,DADB, | %67
 (6:4:6E,GB, F,F=A, (6:4:6G, EB, A,GC | (6:4:6D,A,DFDA, (6:4:6D,A,C_GCA, | %69
 (6:4:6D,A,CGCA, (6:4:6D,A,DFDA, | (6:4:6A,,E,A,CA,E, (6:4:6D, _FA,E,D!courtesy!=G, | %71
 (6:4:6A,,E,A,CA,E, (6:4:6D,_F,A,DF,A, | (6:4:6E,,E,A,CE,A, (6:4:6E,,E,!courtesy!=G,DG,E, | %73
 (6:4:6A,,E,A,CE,A, (6:4:6G,,G,B,DB,G, | (6:4:6A,,E,A,CA,E, (6:4:6A,,A,CGCA, | %75
 (6:4:6D,A,DFDA, (6:4:6D,A,F!>!AFA, | (6:4:6GEA, FDA, (6:4:6ECA, DB,A, | %77
 (6:4:6A,,E,A,CA,E, (6:4:6G,,G,B,DB,G, | (6:4:6B,,F,B,=DB,F, (6:4:6B,,B,DADB, | %79
 (6:4:6E,GB, F,F=A, (6:4:6G, EB, A,GC | (6:4:6D,A,DFDA, (6:4:6D,A,CGCA, | %81
 (6:4:6D,A,CGCA, (6:4:6D,A,CGCA, ||[K:E] (3!>!C,G,C(3!>!ECG, (3!>!E,G,C(3!>!GCG, | %83
 (3!>!C,G,C(3!>!ECG, (3!>!E,G,C(3!>!GCG, | (3!>!D,A,C(3!>!FCA, (3!>!F,A,C(3!>!DCA, | %85
 (3(G,,D,F,(3^B,F,D, (3G,,D,F,(3B,F,D,) | (3C,G,C(3ECG, (3E,G,C(3GCG, | %87
 (3C,G,^A,(3EA,G, (3E,A,C(3GCA, | (3D,G,B,(3DB,G, (3D,^A,C(3^^FCA, | %89
 (6:4:6G,,D,G,B,G,D, (6:4:6G,,D,G,B,G,D, | (3A,,C,F,(3A,C,F, (3A,,C,F,(3CC,F, | %91
 (3B,,F,A,(3B,F,A, (3E,,B,,E,(3B,B,,E, | (3A,,C,F,(3A,C,F, (3A,,C,F,(3A,C,F, | %93
 (3B,,F,A,(3DF,A, (3E,,E,G,(3EE,G, | (3A,,C,F,(3A,C,F, (3A,,C,F,(3CC,F, | %95
 (3B,,F,A,(3B,F,A, (3E,,B,,E,(3B,B,,"^cresc."E, | (3A,,C,F,(3A,C,F, (3A,,D,F,(3CD,F, | %97
 (3G,,D,F,(3^B,D,F, (3G,,D,F,(3B,D,F, |!f! (3A,,D,F,(3=B,D,F, (3^A,,D,F,(3^A,D,F, | %99
 (3^B,,D,F,(3=A,D,F, (3B,,D,F,(3A,D,F, | (3A,,D,F,(3=B,D,F, (3^A,,D,F,(3^A,D,F, | %101
 (3^B,,D,F,(3=A,D,F, (3B,,F,G,(3DF,G, | (3C,G,C(3ECG, (3E,G,C(3GCG, | (3C,G,C(3ECG, (3E,G,C(3GCG, | %104
 (3D,A,C(3FCA, (3F,A,C(3DCA, | (3G,,D,F,(3^B,F,D, (3G,,D,F,(3B,F,D, | %106
 (3C,G,C(3ECG, (3E,"^poco                               a                                     poco                        cresc."G,C(3GCG, | %107
 (3F,CD(3AD^C (3G,C^E(3BEC | (3A,CF(3AFC (3G,C^E(3BE"^cresc."C | (3A,CF(3AFC (3^B,,G,^D(3^FDG, | %110
 (3!>!C,G,C(3ECG, (3!>!^D,G,^B,(3FB,^G, | (3!>!E,G,C(3GCG, (3!>!F,C^D(3AD^C | %112
 [G,CEG] z !>![^^F,CE=A]6- | [F,CEA]2 z2 z2 (([^^F,,C,-E,-A,]2 | %114
 .[G,,C,E,G,]2))[K:treble] (!>![Gg]2 !>![Ee]2 !>![Cc]2) | [G,G]2[K:bass] [E,E]2 [C,C]2 [G,,G,]2 | %116
 [E,,E,]2 [C,,C,]2 ([G,,,G,,]2 [A,,,A,,]2 | [G,,,G,,]2 [^^F,,,^^F,,]2 [G,,,G,,]2 [G,,,G,,]2) | %118
 (3C,,G,,C,(3G,C,G,, (3C,,G,,^B,,(3F,B,,G,, | (3C,,G,,C,(3G,C,G,, (3C,,G,,^B,,(3F,B,,G,, | %120
 (3C,,G,,C,(3G,C,G,, (3C,,G,,^B,,(3F,B,,G,, | (3C,,G,,C,(3G,C,G,, (3C,,G,,^B,,(3F,B,,G,, | %122
 (3C,,G,,C,(3E,C,G,, (3C,,G,,C,(3E,C,G,, | (3C,,G,,C,(3E,C,G,, (3E,,G,,C,(3E,C,G,, | %124
 (3C,,G,,C,(3G,C,G,, (3E,,G,,C,(3G,C,G,, | (3C,,G,,C,(3G,C,G,, (3E,,G,,C,(3G,C,G,, | C,,2 z2 z4 | %127
 z8 | [C,,G,,]8 |"^sotto voce" (^A,,2 G,,2 C,2 D,2) | ^E,8 | !>!G,8 | (F,4 ^E,4 | D,4 ^E,2 C,2) | %134
 G,,8- | [G,,,G,,]8 | !arpeggio![C,,,C,,G,,F,G,-^B,]8 | !fermata![C,,G,,^E,G,]8 |] %138
V:3
 x8 | x8 | C,, z z2 x4 | x8 | x8 | x8 | x8 | x8 | x8 | x8 | x8 | x8 | x8 | x8 | x8 | x8 | x8 | x8 | %18
 x8 | x8 | x8 | x8 | x8 | x8 | x8 | x8 | x8 | x8 | x8 | x8 | x8 | x8 | x8 | x8 | x8 | x8 | %36
 x2[K:treble] x6 | x2[K:bass] x6 | x8 | x8 ||[K:Db] x8 | x8 | x8 | x8 | x8 | x8 | x8 | %47
 E,2 F,2 G,2 !courtesy!_A,2 | x8 | x8 | x8 | x8 | x8 | x8 | x8 | E,2 F,2 G,2 !courtesy!_A,2 | x8 | %57
 x8 | x2 x2 D,2 E,2 | x8 | x8 | x8 | x8 | x8 | x8 | x8 | x8 | E,2 F,2 G,2 !courtesy!_A,2 | x8 | %69
 x8 | x2 x2 D,2 E,2 | x8 | x8 | x8 | x8 | x8 | x8 | x8 | x8 | E,2 F,2 G,2 !courtesy!_A,2 | x8 | %81
 x8 ||[K:E] x8 | x8 | x8 | x8 | x8 | x8 | x8 | x8 | x8 | x8 | x8 | x8 | x8 | x8 | x8 | x8 | x8 | %99
 x8 | x8 | x8 | x8 | x8 | x8 | x8 | x8 | x8 | x8 | x8 | x8 | x8 | x8 | x8 | x2[K:treble] x6 | %115
 x2[K:bass] x6 | x8 | x8 | x8 | x8 | x8 | x8 | x8 | x8 | x8 | x8 | x8 | x8 | x8 | x8 | x8 | x8 | %132
 x8 | x8 | x8 | x8 | x8 | x8 |] %138
V:4
 x8 | x8 | x8 | x8 | x8 | x8 | x4!8va(! x4!8va)! | x8 | x8 | x8 | x8 | x8 | %12
 G/g/^B/c/ F/f/B/c/ ^E/^e/B/c/ F/f/B/c/ | C/c/F/A/ D/d/A/B/ E/e/G/B/ G/g/B/e/ | %14
 G/(g/^B/c/ F/f/B/c/ ^E/^e/B/c/ F/f/B/c/ | %15
 ^E/^e/B/d/ F/f/B/d/ A/a/!>(!B/!courtesy!=e/ G/g/B/e/)!>)! | %16
 G/g/^B/c/ F/f/B/c/ ^E/^e/B/c/ F/f/B/c/ | C/c/F/A/ D/d/A/B/ E/e/G/B/ G/g/B/e/ | %18
 G/g/^B/c/ F/f/B/c/ d/d'/f/a/ c/c'/f/a/ | c/c'/d/f/ ^B/^b/d/f/ B/b/d/f/ B/b/d/f/ | %20
 =c/=c'/d/f/ B/b/d/f/ B/b/d/f/ ^A/^a/d/f/ | ^A/^a/d/f/ =A/=a/d/f/ A/a/d/f/ A/a/d/f/ | %22
 =c/=c'/d/f/ B/b/d/f/ B/b/d/f/ ^A/^a/d/f/ | ^A/^a/d/f/ =A/=a/d/f/ A/a/d/f/ G/g/d/f/ | x8 | x8 | %26
 x4!8va(! x4!8va)! | x8 | x8 | x8 | x8 | x8 | x8 | x8 | x8 | x8 | x2!8va(! x6!8va)! | x8 | x8 | %39
 x8 ||[K:Db] x8 | x8 | x8 | x8 | x8 | x8 | x8 | x8 | x8 | x8 | x8 | x8 | x8 | x8 | x8 | x8 | x8 | %57
 x8 | x8 | x8 | x8 | x8 | x8 | x8 | x8 | x8 | x8 | x8 | x8 | x8 | x8 | x8 | x8 | x8 | x8 | x8 | %76
 x8 | x8 | x8 | x8 | x8 | x8 ||[K:E] x8 | x8 | x4!8va(! x4!8va)! | x8 | x8 | x8 | x8 | x8 | %90
 G/g/^B/c/ F/f/B/c/ ^E/^e/B/c/ F/f/B/c/ | C/c/F/A/ D/d/A/B/ E/e/G/B/ G/g/B/e/ | %92
 G/(g/^B/c/ F/f/B/c/ ^E/^e/B/c/ F/f/B/c/ | %93
 ^E/^e/B/d/ F/f/B/d/ A/a/!>(!B/!courtesy!=e/ G/g/B/e/)!>)! | %94
 G/g/^B/c/ F/f/B/c/ ^E/^e/B/c/ F/f/B/c/ | C/c/F/A/ D/d/A/B/ E/e/G/B/ G/g/B/e/ | %96
 G/g/^B/c/ F/f/B/c/ d/d'/f/a/ c/c'/f/a/ | c/c'/d/f/ ^B/^b/d/f/ B/b/d/f/ B/b/d/f/ | %98
 =c/=c'/d/f/ B/b/d/f/ B/b/d/f/ ^A/^a/d/f/ | ^A/^a/d/f/ =A/=a/d/f/ A/a/d/f/ A/a/d/f/ | %100
 =c/=c'/d/f/ B/b/d/f/ B/b/d/f/ ^A/^a/d/f/ | ^A/^a/d/f/ =A/=a/d/f/ A/a/d/f/ G/g/d/f/ | x8 | x8 | %104
 x4!8va(! x4!8va)! | x8 | x8 | x8 | x8 | x8 | x8 | x8 | x8 | x8 | x2!8va(! x6!8va)! | x8 | x8 | %117
 x8 | x8 | x8 | x8 | x8 | x8 | x8 | x8 | x8 | x8 | x8 | x8 | x8 | x8 | x8 | x8 | x8 | x8 | x8 | %136
 x8 | x8 |] %138

